X: 18
T:La Valse des Jeunes Filles
R:
C:Trad.
S:The 
Z:Added by alf.
M:3/4
L:1/8
K:D
dc BA|:F2 FE DE|F2 dc BA|F2 FE DF|G3F GA|
B2 BA GF|E3F GA|BA Bc BA||1 F2 dc BA:|2 d2 DF Ad||
c2 cB AB|DF BF AF|EB Ec Ec|d2 DF Ad|
c2 cB AB|DF BF AF|EA Ec Ec|[1 d2 DF Ad:|[2 d4 d2|]
